!!!COM: Johann Gottfried Walter (1684-1748)
!!!OPR: Ach Gott und Herr
!!!OTL: Vers 2
!!!ONB: "Fuga in Conseguenza, nella quale il Conseguente segue la Guida per una
!!!ONB:  Diapente grave sopra'l Soggetto, dopo una Pausa di Semiminima."
!!!ONB: "Kanon, in dem der Comes dem Dux ueber das Thema in der Unterquinte
!!!ONB:  nach einer Viertelpause folgt."
!!!YOR: From "Ausgewaehlte Orgelwerke," edited by Heinz Lohmann
!!!YOR: Volume 1, Choralbearbeitungen A-H.
!!!YOR: Wiesbaden, Breitkopf and Haertel, 1966. pp. 3-4
**kern	**kern	**kern
*CF	*conseq	*guida
*k[]	*k[]	*k[]
*M4/4	*M4/4	*M4/4
=1-	=1-	=1-
1r	4r	8r
.	.	8cc
.	8r	16b
.	.	16cc
.	8f	16b
.	.	16a
.	16e	8g
.	16f	.
.	16e	8g
.	16d	.
.	8c	[4a
.	8c	.
=2	=2	=2
2r	[4d	16a]
.	.	16a
.	.	16g
.	.	16a
.	16d]	16b
.	16d	16b
.	16c	16a
.	16d	16b
2C	16e	16cc
.	16e	16cc
.	16d	16b
.	16e	16cc
.	16f	[4a
.	16f	.
.	16e	.
.	16f	.
=3	=3	=3
2BB	[4d	16a]
.	.	16a
.	.	16b
.	.	16a
.	16d]	[4g
.	16d	.
.	16e	.
.	16d	.
2AA	[4c	16g]
.	.	16g
.	.	16a
.	.	16g
.	16c]	4f#m
.	16c	.
.	16d	.
.	16c	.
=4	=4	=4
2GG	4B	8g
.	.	8dd
.	8c	16ee
.	.	16ff
.	8g	16dd
.	.	16ee
2r	16a	8cc
.	16b	.
.	16g	8ee
.	16a	.
.	8f	16dd
.	.	16ee
.	8a	16cc
.	.	16dd
=5	=5	=5
2r	16g	8b
.	16a	.
.	16f	[8dd
.	16g	.
.	8e	16dd]
.	.	16ee
.	[8g	16dd
.	.	16cc
2GG	16g]	[4bm
.	16a	.
.	16g	.
.	16f	.
.	[4e	16b]
.	.	16b
.	.	16a
.	.	16b
=6	=6	=6
2AA	16e]	[4cc
.	16e	.
.	16d	.
.	16e	.
.	[4f	16cc]
.	.	16cc
.	.	16b
.	.	16cc
2BB	16f]	[4dd
.	16f	.
.	16e	.
.	16f	.
.	[4g	16dd]
.	.	16dd
.	.	16cc
.	.	16dd
=7	=7	=7
2C	16g]	8ee
.	16g	.
.	16f	8dd
.	16g	.
.	8a	16cc
.	.	16dd
.	8g	16b
.	.	16cc
2r	16f	8dd
.	16g	.
.	16e	8cc
.	16f	.
.	8g	16b
.	.	16cc
.	8f	16a
.	.	16b
=8	=8	=8
2r	16e	[4cc
.	16f	.
.	16d	.
.	16e	.
.	[4f	16cc]
.	.	16dd
.	.	16cc
.	.	16b
2D	16f]	8a
.	16g	.
.	16f	16b
.	16e	16cc
.	8d	[4bm
.	16e	.
.	16f	.
=9	=9	=9
2C	[4e	16b]
.	.	16b
.	.	16cc
.	.	16b
.	16e]	[4a
.	16e	.
.	16f	.
.	16e	.
2BB	[4d	16a]
.	.	16a
.	.	16b
.	.	16a
.	16d]	[4g
.	16d	.
.	16e	.
.	16d	.
=10	=10	=10
2AA	[4c	8g]
.	.	16a
.	.	16b
.	8c]	16a
.	.	16b
.	16d	16a
.	16e	16g
2BB	16d	8f#
.	16e	.
.	16d	16g
.	16c	16a
.	8B	[4g
.	16c	.
.	16d	.
=11	=11	=11
2AA	[4c	16g]
.	.	16g
.	.	16f#
.	.	16e
.	16c]	4f#
.	16c	.
.	16B	.
.	16A	.
2GG	4B	16g
.	.	16dd
.	.	16cc
.	.	16dd
.	16c	8ee
.	16g	.
.	16fn	8dd
.	16g	.
=12	=12	=12
2r	8a	16cc
.	.	16dd
.	8g	16b
.	.	16cc
.	16f	16dd
.	16g	16ee
.	16e	16cc
.	16f	16dd
2C	16g	[4ee
.	16a	.
.	16f	.
.	16g	.
.	[4a	16ee]
.	.	16dd
.	.	16ee
.	.	16ff#
=13	=13	=13
2BB	16a]	[4ddm
.	16g	.
.	16a	.
.	16b	.
.	[4g	16dd]
.	.	16dd
.	.	16gg
.	.	16dd
2C	16g]	[4ee
.	16g	.
.	16cc	.
.	16g	.
.	[4a	16ee]
.	.	16gg
.	.	16ff#
.	.	16ee
=14	=14	=14
2D	16a]	8ff#
.	16cc	.
.	16b	16gg
.	16a	16aa
.	8b	8dd
.	16cc	16ee
.	16dd	16ff#
2r	8g	16dd
.	.	16b
.	16a	16cc
.	16b	16dd
.	16cc	8ee
.	16e	.
.	16fn	16dd
.	16g	16ee
=15	=15	=15
2r	8a	[4cc
.	16g	.
.	16a	.
.	[4f	16cc]
.	.	16dd
.	.	16cc
.	.	16b
2D	16f]	16a
.	16g	16ee
.	16f	16dd
.	16e	16cc
.	16d	16b
.	16a	16cc
.	16g	16b
.	16f	16a
=16	=16	=16
2E	16e	[4g
.	16f	.
.	16e	.
.	16d	.
.	[4c	16g]
.	.	16a
.	.	16g
.	.	16f#
2C	16c]	[4e
.	16d	.
.	16c	.
.	16B	.
.	[4A	16e]
.	.	16g
.	.	16f#
.	.	16e
=17	=17	=17
2D	16A]	8f#
.	16c	.
.	16B	16g
.	16A	16a
.	8B	16g
.	.	16b
.	16c	16a
.	16d	16b
2r	16c	8a
.	16e	.
.	16d	16b
.	16e	16cc
.	8d	16b
.	.	16cc
.	16e	16bm
.	16fn	16a
=18	=18	=18
1r	16e	8g
.	16f	.
.	16e	16a
.	16d	16b
.	8c	16cc
.	.	16dd
.	16d	16ccM
.	16e	16b
.	16f	8a
.	16g	.
.	16f	16b
.	16e	16cc
.	8d	[4dd
.	16e	.
.	16f	.
=19	=19	=19
2r	[4g	16dd]
.	.	16ee
.	.	16dd
.	.	16cc
.	16g]	[4b
.	16a	.
.	16g	.
.	16f	.
2GG	[4e	16b]
.	.	16cc
.	.	16b
.	.	16a
.	16e]	8g
.	16f	.
.	16e	16a
.	16d	16b
=20	=20	=20
2AA	8c	[4cc
.	16d	.
.	16e	.
.	[4f	16cc]
.	.	16a
.	.	16b
.	.	16cc
2BB	16f]	[4dd
.	16d	.
.	16e	.
.	16f	.
.	[4g	16dd]
.	.	16b
.	.	16cc
.	.	16dd
=21	=21	=21
2C	16g]	[4ee
.	16e	.
.	16f	.
.	16g	.
.	[4a	16ee]
.	.	16ee
.	.	16dd
.	.	16cc
2E	16a]	8b
.	16a	.
.	16g	16cc
.	16f	16dd
.	8e	[4cc
.	16f	.
.	16g	.
=22	=22	=22
2D	[4f	16cc]
.	.	16cc
.	.	16b
.	.	16a
.	16f]	[4b
.	16f	.
.	16e	.
.	16d	.
[2C	[4e	16b]
.	.	16b
.	.	16a
.	.	16g
.	16e]	[4a
.	16e	.
.	16d	.
.	16c	.
=23	=23	=23
2C]	[4d	16a]
.	.	16a
.	.	16b
.	.	16cc
.	16d]	[4dd
.	16d	.
.	16e	.
.	16f	.
2BB	[4g	16dd]
.	.	16ee
.	.	16dd
.	.	16cc
.	16g]	16b
.	16a	16cc
.	16g	16b
.	16f	16a
=24	=24	=24
[1C	16e	8g
.	16f	.
.	16e	16a
.	16d	16b
.	8c	16cc
.	.	16dd
.	16d	16ccM
.	16e	16b
.	16f	8a
.	16g	.
.	16f	16b
.	16e	16cc
.	8d	4bm
.	16e	.
.	16f	.
=25	=25	=25
1C]	1e 1g	1cc
==	==	==
*-	*-	*-
!!!CDT: 1684///-1748//
!!!OCY: Deutschland
!!!ODT: <1748
!!!AFR: organ chorale
!!!AST: polyphony
!!!AMT: simple quadruple
!!!AIN: organ
!!!YEP: David Huron and Denis Collins
!!!YEN: Canada
!!!EEV: 1.0
!!!RDT: 1995 April 29
!!!YED: 1995 August 31
